logo/oracle.svg

<?xml version="1.0" encoding="UTF-8" standalone="no"?>
<svg width="512px" height="67px" viewBox="0 0 512 67" version="1.1" xmlns="http://www.w3.org/2000/svg" xmlns:xlink="http://www.w3.org/1999/xlink" preserveAspectRatio="xMidYMid">
    <g>
        <path d="M221.034224,43.3028585 L254.866139,43.3028585 L236.977029,14.5219565 L204.144344,66.5590894 L189.201618,66.5590894 L229.137107,4.05139996 C230.873472,1.52582675 233.767268,0 236.977029,0 C240.081163,0 242.975008,1.47323786 244.658785,3.94617225 L284.75209,66.5590894 L269.809323,66.5590894 L262.758717,54.9309781 L228.505591,54.9309781 L221.034224,43.3028585 L221.034224,43.3028585 Z M376.251178,54.9309781 L376.251178,0.631391222 L363.570757,0.631391222 L363.570757,60.2452021 C363.570757,61.8762982 364.202256,63.4547554 365.412325,64.6649074 C366.62231,65.8751009 368.25349,66.5590894 370.042461,66.5590894 L427.867434,66.5590894 L435.338818,54.9309781 L376.251178,54.9309781 L376.251178,54.9309781 Z M166.471559,45.1970405 C178.783867,45.1970405 188.780891,35.2526558 188.780891,22.9405145 C188.780891,10.6284147 178.783867,0.631391222 166.471559,0.631391222 L110.99843,0.631391222 L110.99843,66.5590894 L123.673825,66.5590894 L123.673825,12.2595108 L165.629671,12.2595108 C171.522872,12.2595108 176.258211,17.0475214 176.258211,22.9405145 C176.258211,28.8334992 171.522872,33.6215597 165.629671,33.6215597 L129.882576,33.5689209 L167.734175,66.5590894 L186.150048,66.5590894 L160.683969,45.1970405 L166.471559,45.1970405 L166.471559,45.1970405 Z M32.9694209,66.5590894 C14.7693798,66.5590894 9.23705556e-14,51.8266442 9.23705556e-14,33.6215597 C9.23705556e-14,15.4164336 14.7693798,0.631391222 32.9694209,0.631391222 L71.2892929,0.631391222 C89.4943774,0.631391222 104.253246,15.4164336 104.253246,33.6215597 C104.253246,51.8266442 89.4943774,66.5590894 71.2892929,66.5590894 L32.9694209,66.5590894 L32.9694209,66.5590894 Z M70.4368936,54.9309781 C82.2283308,54.9309781 91.7781116,45.4074876 91.7781116,33.6215597 C91.7781116,21.8355819 82.2283308,12.2595108 70.4368936,12.2595108 L33.8163525,12.2595108 C22.030383,12.2595108 12.4751261,21.8355819 12.4751261,33.6215597 C12.4751261,45.4074876 22.030383,54.9309781 33.8163525,54.9309781 L70.4368936,54.9309781 L70.4368936,54.9309781 Z M311.217808,66.5590894 C293.012682,66.5590894 278.227789,51.8266442 278.227789,33.6215597 C278.227789,15.4164336 293.012682,0.631391222 311.217808,0.631391222 L356.73054,0.631391222 L349.311753,12.2595108 L312.059696,12.2595108 C300.273676,12.2595108 290.697822,21.8355819 290.697822,33.6215597 C290.697822,45.4074876 300.273676,54.9309781 312.059696,54.9309781 L357.782733,54.9309781 L350.311433,66.5590894 L311.217808,66.5590894 L311.217808,66.5590894 Z M466.276962,54.9309781 C456.5429,54.9309781 448.282225,48.4065938 445.75656,39.4092751 L499.951078,39.4092751 L507.422461,27.7811639 L445.75656,27.7811639 C448.282225,18.8364757 456.5429,12.2595108 466.276962,12.2595108 L503.476422,12.2595108 L511.000403,0.631391222 L465.435074,0.631391222 C447.229948,0.631391222 432.445056,15.4164336 432.445056,33.6215597 C432.445056,51.8266442 447.229948,66.5590894 465.435074,66.5590894 L504.528699,66.5590894 L512,54.9309781 L466.276962,54.9309781 L466.276962,54.9309781 Z" fill="#EA1B22"></path>
    </g>
</svg>

<svg viewBox="0 0 512 67" xmlns="http://www.w3.org/2000/svg"><path fill="#EA1B22" d="M221.03 43.3h33.83l-17.89-28.79 -32.84 52.03h-14.95l39.93-62.51c1.73-2.53 4.63-4.06 7.83-4.06 3.1 0 5.99 1.47 7.68 3.94l40.09 62.61h-14.95l-7.06-11.63h-34.26l-7.48-11.63v0Zm155.21 11.62V.62h-12.69v59.61c0 1.63.63 3.2 1.84 4.41 1.2 1.21 2.84 1.89 4.63 1.89h57.82l7.47-11.63h-59.09v0Zm-209.78-9.74c12.31 0 22.3-9.95 22.3-22.26 0-12.32-10-22.31-22.31-22.31h-55.48v65.92h12.67v-54.3h41.95c5.89 0 10.62 4.78 10.62 10.68 0 5.89-4.74 10.68-10.63 10.68l-35.75-.06 37.85 32.99h18.41l-25.47-21.37h5.78v0ZM32.95 66.54C14.74 66.54-.02 51.8-.02 33.6c0-18.21 14.76-33 32.96-33h38.31c18.2 0 32.96 14.78 32.96 32.99 0 18.2-14.76 32.93-32.97 32.93H32.92v0Zm37.46-11.63c11.79 0 21.34-9.53 21.34-21.31 0-11.79-9.55-21.37-21.35-21.37H33.77c-11.79 0-21.35 9.57-21.35 21.36 0 11.78 9.55 21.3 21.34 21.3h36.62v0Zm240.78 11.62c-18.21 0-33-14.74-33-32.94 0-18.21 14.78-33 32.99-33h45.51l-7.42 11.62h-37.26c-11.79 0-21.37 9.57-21.37 21.36 0 11.78 9.57 21.3 21.36 21.3h45.72l-7.48 11.62h-39.1v0ZM466.24 54.9c-9.74 0-18-6.53-20.53-15.53h54.19l7.47-11.63H445.7c2.52-8.95 10.78-15.53 20.52-15.53h37.19L510.93.58h-45.57c-18.21 0-33 14.78-33 32.99 0 18.2 14.78 32.93 32.99 32.93h39.09l7.47-11.63h-45.73v0Z"/></svg>
